storage/app/icons/tabler/filled/trophy.svg

<!--
version: "2.0"
unicode: "f6af"
-->
<svg
  xmlns="http://www.w3.org/2000/svg"
  width="24"
  height="24"
  viewBox="0 0 24 24"
  fill="currentColor"
>
  <path d="M17 3a1 1 0 0 1 .993 .883l.007 .117v2.17a3 3 0 1 1 0 5.659v.171a6.002 6.002 0 0 1 -5 5.917v2.083h3a1 1 0 0 1 .117 1.993l-.117 .007h-8a1 1 0 0 1 -.117 -1.993l.117 -.007h3v-2.083a6.002 6.002 0 0 1 -4.996 -5.692l-.004 -.225v-.171a3 3 0 0 1 -3.996 -2.653l-.003 -.176l.005 -.176a3 3 0 0 1 3.995 -2.654l-.001 -2.17a1 1 0 0 1 1 -1h10zm-12 5a1 1 0 1 0 0 2a1 1 0 0 0 0 -2m14 0a1 1 0 1 0 0 2a1 1 0 0 0 0 -2" />
</svg>

<svg xmlns="http://www.w3.org/2000/svg" width="24" height="24" fill="currentColor" viewBox="0 0 24 24"><path d="M17 3a1 1 0 0 1 .993.883L18 4v2.17a3 3 0 1 1 0 5.659V12a6 6 0 0 1-5 5.917V20h3a1 1 0 0 1 .117 1.993L16 22H8a1 1 0 0 1-.117-1.993L8 20h3v-2.083a6 6 0 0 1-4.996-5.692L6 12v-.171a3 3 0 0 1-3.996-2.653L2.001 9l.005-.176A3 3 0 0 1 6.001 6.17L6 4a1 1 0 0 1 1-1zM5 8a1 1 0 1 0 0 2 1 1 0 0 0 0-2m14 0a1 1 0 1 0 0 2 1 1 0 0 0 0-2"/></svg>
